X:1
T:Yksi Kauppias Intiasta
M:2/4
L:1/8
K:Bb
 B,/2D/2| F F/2F/2 GE| GF zD/2-E/2| Fd cA| B2 z| c| B3/2 G/2E/2-G/2 B|\
 F3/2- D/2 B,E| DF CC| B, z2| c| B3/2 G/2E/2-G/2 B| F3/2- D/2 B,E|\
 DF CC| B,2 z||
